X: 181835
T: Road to the River
S: B.Breathnach:"Ceol Rince na hEireann" IV/223 (gan ainm) 
Z: B.Black
L: 1/8
M: 4/4
R: hornpipe
K: A
CD|EA, A,2 EA,FA,|EA, A,2 A,3c|dcBA GABc|B2 B,2 B,2 CD|
EA, A,2 EA,FA,|EA, A,2 A,3c|dcBA GABc|A2 A,2 A,2 :|
AB|c2 ec cBeB|BAcA AGFE|FBBc dcBA|GABc B2 AB|
c2 ec cBeB|BAcA AGFE|FBBc dBAG|A2 A,2 A,2 AB|
c2 ec cBeB|BAcA AGFE|FBBc dcBA|GABc B2 AB|
c2 ac B2 gB|A2 fa AGFE|FBBc dBAG|A2 AA A2 ||
fg|a2 A,A, A,B,CD|EDCB, A,3g|agfe dcBA|GABc B3g|
agfe dcBA|dcde fgaf|ecBA GABd|1 c2 AA A2 :|2 c2 A,A, A,2 ||
